snaxkrew/imgs/ranks/elite.svg

<?xml version="1.0" encoding="UTF-8" standalone="no"?><svg xmlns:dc="http://purl.org/dc/elements/1.1/" xmlns:cc="http://creativecommons.org/ns#" xmlns:rdf="http://www.w3.org/1999/02/22-rdf-syntax-ns#" xmlns:svg="http://www.w3.org/2000/svg" xmlns="http://www.w3.org/2000/svg" viewBox="0 0 45 45" style="enable-background:new 0 0 45 45;" xml:space="preserve" version="1.1" id="svg2"><metadata id="metadata8"><rdf:RDF><cc:Work rdf:about=""><dc:format>image/svg+xml</dc:format><dc:type rdf:resource="http://purl.org/dc/dcmitype/StillImage"/></cc:Work></rdf:RDF></metadata><defs id="defs6"><clipPath id="clipPath16" clipPathUnits="userSpaceOnUse"><path id="path18" d="M 0,36 36,36 36,0 0,0 0,36 Z"/></clipPath></defs><g transform="matrix(1.25,0,0,-1.25,0,45)" id="g10"><g id="g12"><g clip-path="url(#clipPath16)" id="g14"><g transform="translate(27.3955,0)" id="g20"><path id="path22" style="fill:#292f33;fill-opacity:1;fill-rule:nonzero;stroke:none" d="M 0,0 C -0.433,12.618 -2.98,23.689 -11.794,23.689 -20.609,23.689 -23.156,12.618 -23.589,0 L 0,0 Z"/></g><g transform="translate(9.0693,0)" id="g24"><path id="path26" style="fill:#292f33;fill-opacity:1;fill-rule:nonzero;stroke:none" d="M 0,0 C -0.707,5.899 -2.245,10 -4.035,10 -5.825,10 -7.363,5.899 -8.069,0 L 0,0 Z"/></g><g transform="translate(32,0)" id="g28"><path id="path30" style="fill:#292f33;fill-opacity:1;fill-rule:nonzero;stroke:none" d="M 0,0 C -0.794,5.899 -2.522,10 -4.534,10 -6.546,10 -8.275,5.899 -9.069,0 L 0,0 Z"/></g><g transform="translate(27.4648,12.3125)" id="g32"><path id="path34" style="fill:#e1e8ed;fill-opacity:1;fill-rule:nonzero;stroke:none" d="m 0,0 c -3.923,11.154 0.535,20.687 -10.465,20.687 -11,0 -8.736,-8.173 -13.193,-19.125 -1.119,-2.749 1.443,-5.908 1.443,-5.908 0,0 2.612,4.756 4.75,5.846 0.591,-3.277 1.75,-6.937 1.75,-6.937 0,0 4.915,5.656 9.085,8.25 1.15,-1.54 4.915,-7.5 4.915,-7.5 0,0 2.507,2.435 1.715,4.687"/></g><g transform="translate(23,31)" id="g36"><path id="path38" style="fill:#ffcc4d;fill-opacity:1;fill-rule:nonzero;stroke:none" d="M 0,0 C 4.36,-3.059 5.542,-2.16 7.812,-3.563 9.938,-4.875 9.813,-8.5 7.937,-11.625 7.358,-8.964 8.438,-8.476 1,-8.476 c -5,0 -7.928,-0.289 -7.001,1 C -5.073,-6.186 4.026,-7.934 0,0"/></g><g transform="translate(20.9395,28.4834)" id="g40"><path id="path42" style="fill:#292f33;fill-opacity:1;fill-rule:nonzero;stroke:none" d="m 0,0 c 0,-0.82 -0.664,-1.483 -1.484,-1.483 -0.821,0 -1.483,0.663 -1.483,1.483 0,0.82 0.662,1.483 1.483,1.483 C -0.664,1.483 0,0.82 0,0"/></g><path id="path44" style="fill:#e1e8ed;fill-opacity:1;fill-rule:nonzero;stroke:none" d="m 22,28.93 -5,0 0,2 5,0 0,-2 z"/><g transform="translate(14.9995,16)" id="g46"><path id="path48" style="fill:#e1e8ed;fill-opacity:1;fill-rule:nonzero;stroke:none" d="m 0,0 c 0,0 1,-3 6.001,-7 1,3 4,8 4,8 L 0,0 Z"/></g></g></g></g></svg>

<?xml version="1.0" encoding="UTF-8" standalone="no"?>
<svg xmlns:rdf="http://www.w3.org/1999/02/22-rdf-syntax-ns#" style="enable-background:new 0 0 45 45" xmlns="http://www.w3.org/2000/svg" xml:space="preserve" version="1.1" xmlns:cc="http://creativecommons.org/ns#" viewBox="0 0 45 45" xmlns:dc="http://purl.org/dc/elements/1.1/"><defs><clipPath id="a" clipPathUnits="userSpaceOnUse"><path d="m0 36h36v-36h-36v36z"/></clipPath></defs><g transform="matrix(1.25,0,0,-1.25,0,45)"><g clip-path="url(#a)"><g transform="translate(27.4)"><path d="m0 0c-0.433 12.6-2.98 23.7-11.8 23.7-8.8 0-11.4-11.1-11.8-23.7h23.6z" fill="#292f33"/></g><g transform="translate(9.07)"><path d="m0 0c-0.707 5.9-2.24 10-4.04 10-1.78 0-3.32-4.1-4.03-10h8.07z" fill="#292f33"/></g><g transform="translate(32)"><path d="m0 0c-0.794 5.9-2.52 10-4.53 10-2.02 0-3.75-4.1-4.54-10h9.07z" fill="#292f33"/></g><g transform="translate(27.5 12.3)"><path d="m0 0c-3.92 11.2 0.535 20.7-10.5 20.7s-8.74-8.17-13.2-19.1c-1.12-2.75 1.44-5.91 1.44-5.91s2.61 4.76 4.75 5.85c0.591-3.28 1.75-6.94 1.75-6.94s4.92 5.66 9.08 8.25c1.15-1.54 4.92-7.5 4.92-7.5s2.51 2.44 1.72 4.69" fill="#e1e8ed"/></g><g transform="translate(23,31)"><path d="m0 0c4.36-3.06 5.54-2.16 7.81-3.56 2.13-1.32 2-4.94 0.13-8.04-0.58 2.64 0.5 3.12-6.94 3.12-5 0-7.93-0.289-7 1s10-0.45 6 7.48" fill="#ffcc4d"/></g><g transform="translate(20.9 28.5)"><path d="m0 0c0-0.82-0.664-1.48-1.48-1.48-0.821 0-1.48 0.663-1.48 1.48 0 0.82 0.662 1.48 1.48 1.48 0.816 0 1.48-0.66 1.48-1.48" fill="#292f33"/></g><path d="m22 28.9h-5v2h5v-2z" fill="#e1e8ed"/><g transform="translate(15 16)"><path d="m0 0s1-3 6-7c1 3 4 8 4 8l-10-1z" fill="#e1e8ed"/></g></g></g></svg>
